img/sprites/telegram-des.svg

<svg width="25" height="24" viewBox="0 0 25 24" fill="none" xmlns="http://www.w3.org/2000/svg">
<path d="M12.5 23.9513C19.4036 23.9513 25 18.5896 25 11.9756C25 5.36168 19.4036 0 12.5 0C5.59644 0 0 5.36168 0 11.9756C0 18.5896 5.59644 23.9513 12.5 23.9513Z" fill="#039BE5"/>
<path d="M5.63278 11.3762L17.6848 6.92424C18.2442 6.73063 18.7327 7.05497 18.5515 7.86533L18.5525 7.86433L16.5004 17.1265C16.3484 17.7832 15.9411 17.9428 15.3713 17.6335L12.2463 15.427L10.739 16.8181C10.5723 16.9778 10.4317 17.1125 10.1088 17.1125L10.3307 14.0657L16.1223 9.05291C16.3744 8.84034 16.0661 8.72059 15.7338 8.93216L8.57652 13.2494L5.49112 12.3273C4.82133 12.1237 4.80674 11.6856 5.63278 11.3762Z" fill="white"/>
</svg>

<svg width="25" height="24" viewBox="0 0 25 24" fill="none" xmlns="http://www.w3.org/2000/svg"><path d="M12.5 23.951c6.904 0 12.5-5.361 12.5-11.975S19.404 0 12.5 0 0 5.362 0 11.976C0 18.59 5.596 23.95 12.5 23.95z" fill="#039BE5"/><path d="M5.633 11.376l12.052-4.452c.56-.193 1.048.131.867.941L16.5 17.126c-.152.656-.559.816-1.129.507l-3.125-2.207-1.507 1.391c-.167.16-.307.294-.63.294l.222-3.046 5.791-5.013c.252-.213-.056-.332-.388-.12l-7.157 4.316-3.086-.922c-.67-.203-.684-.641.142-.95z" fill="#fff"/></svg>
